images/socials/telegram-icon.svg

<?xml version="1.0" encoding="UTF-8" standalone="no"?>
<svg
   width="36.018002"
   height="36.018002"
   viewBox="0 0 36.018002 36.018002"
   fill="none"
   version="1.1"
   id="svg22"
   sodipodi:docname="telegram-icon.svg"
   inkscape:version="1.2.2 (b0a84865, 2022-12-01)"
   xmlns:inkscape="http://www.inkscape.org/namespaces/inkscape"
   xmlns:sodipodi="http://sodipodi.sourceforge.net/DTD/sodipodi-0.dtd"
   xmlns="http://www.w3.org/2000/svg"
   xmlns:svg="http://www.w3.org/2000/svg">
  <sodipodi:namedview
     id="namedview24"
     pagecolor="#ffffff"
     bordercolor="#000000"
     borderopacity="0.25"
     inkscape:showpageshadow="2"
     inkscape:pageopacity="0.0"
     inkscape:pagecheckerboard="0"
     inkscape:deskcolor="#d1d1d1"
     showgrid="false"
     inkscape:zoom="6.3783784"
     inkscape:cx="4.7817797"
     inkscape:cy="18.5"
     inkscape:window-width="1470"
     inkscape:window-height="456"
     inkscape:window-x="0"
     inkscape:window-y="37"
     inkscape:window-maximized="0"
     inkscape:current-layer="svg22" />
  <path
     d="m 18.009,36.0181 c 9.9461,0 18.0091,-8.063 18.0091,-18.0091 C 36.0181,8.06292 27.9551,0 18.009,0 8.06292,0 0,8.06292 0,18.009 0,27.9551 8.06292,36.0181 18.009,36.0181 Z"
     fill="url(#paint0_linear_574_29761)"
     id="path2"
     style="fill:url(#paint0_linear_574_29761)" />
  <path
     d="m 14.7074,26.2633 c -0.5835,0 -0.4843,-0.2203 -0.6856,-0.7759 l -1.7156,-5.6465 13.2066,-7.8348"
     fill="#c8daea"
     id="path4" />
  <path
     d="m 14.7075,26.2631 c 0.4502,0 0.6492,-0.2059 0.9005,-0.4502 L 18.0092,23.478 15.014,21.6719"
     fill="#a9c9dd"
     id="path6" />
  <path
     d="m 15.0133,21.6722 7.2577,5.362 c 0.8282,0.457 1.4259,0.2204 1.6322,-0.7689 l 2.9542,-13.9214 c 0.3025,-1.2127 -0.4622,-1.7627 -1.2545,-1.403 l -17.34721,6.689 c -1.18411,0.475 -1.1772,1.1356 -0.21584,1.43 l 4.45165,1.3894 10.3062,-6.502 c 0.4865,-0.295 0.933,-0.1364 0.5665,0.1888"
     fill="url(#paint1_linear_574_29761)"
     id="path8"
     style="fill:url(#paint1_linear_574_29761)" />
  <defs
     id="defs20">
    <linearGradient
       id="paint0_linear_574_29761"
       x1="13.5086"
       y1="1.50195"
       x2="4.5040598"
       y2="22.511299"
       gradientUnits="userSpaceOnUse">
      <stop
         stop-color="#37AEE2"
         id="stop10" />
      <stop
         offset="1"
         stop-color="#1E96C8"
         id="stop12" />
    </linearGradient>
    <linearGradient
       id="paint1_linear_574_29761"
       x1="15.7544"
       y1="19.115101"
       x2="17.6786"
       y2="25.339399"
       gradientUnits="userSpaceOnUse">
      <stop
         stop-color="#EFF7FC"
         id="stop15" />
      <stop
         offset="1"
         stop-color="white"
         id="stop17" />
    </linearGradient>
    <linearGradient
       id="paint0_linear_574_29761-2"
       x1="13.5086"
       y1="1.50195"
       x2="4.5040598"
       y2="22.511299"
       gradientUnits="userSpaceOnUse"
       gradientTransform="translate(47.368069,12.876543)">
      <stop
         stop-color="#37AEE2"
         id="stop10-2" />
      <stop
         offset="1"
         stop-color="#1E96C8"
         id="stop12-7" />
    </linearGradient>
    <linearGradient
       id="paint0_linear_574_29761-7"
       x1="13.5086"
       y1="1.50195"
       x2="4.5040598"
       y2="22.511299"
       gradientUnits="userSpaceOnUse"
       gradientTransform="translate(47.368069,11.308747)">
      <stop
         stop-color="#37AEE2"
         id="stop10-9" />
      <stop
         offset="1"
         stop-color="#1E96C8"
         id="stop12-0" />
    </linearGradient>
  </defs>
</svg>

<svg width="37" height="37" viewBox="0 0 37 37" fill="none" xmlns="http://www.w3.org/2000/svg">
<path d="M18.009 36.0181C27.9551 36.0181 36.0181 27.9551 36.0181 18.009C36.0181 8.06292 27.9551 0 18.009 0C8.06292 0 0 8.06292 0 18.009C0 27.9551 8.06292 36.0181 18.009 36.0181Z" fill="url(#paint0_linear_574_29761)"/>
<path d="M14.7074 26.2633C14.1239 26.2633 14.2231 26.043 14.0218 25.4874L12.3062 19.8409L25.5128 12.0061" fill="#C8DAEA"/>
<path d="M14.7075 26.2631C15.1577 26.2631 15.3567 26.0572 15.608 25.8129L18.0092 23.478L15.014 21.6719" fill="#A9C9DD"/>
<path d="M15.0133 21.6722L22.271 27.0342C23.0992 27.4912 23.6969 27.2546 23.9032 26.2653L26.8574 12.3439C27.1599 11.1312 26.3952 10.5812 25.6029 10.9409L8.25569 17.6299C7.07158 18.1049 7.07849 18.7655 8.03985 19.0599L12.4915 20.4493L22.7977 13.9473C23.2842 13.6523 23.7307 13.8109 23.3642 14.1361" fill="url(#paint1_linear_574_29761)"/>
<defs>
<linearGradient id="paint0_linear_574_29761" x1="13.5086" y1="1.50195" x2="4.50406" y2="22.5113" gradientUnits="userSpaceOnUse">
<stop stop-color="#37AEE2"/>
<stop offset="1" stop-color="#1E96C8"/>
</linearGradient>
<linearGradient id="paint1_linear_574_29761" x1="15.7544" y1="19.1151" x2="17.6786" y2="25.3394" gradientUnits="userSpaceOnUse">
<stop stop-color="#EFF7FC"/>
<stop offset="1" stop-color="white"/>
</linearGradient>
</defs>
</svg>
